public/icons/curtain_icon.svg

<svg width="330" height="330" viewBox="0 0 330 330" fill="none" xmlns="http://www.w3.org/2000/svg">
<path d="M14.089 27.4417C36.9709 26.7399 60.0945 27.3925 82.9943 27.3943L218.442 27.4033C232.246 27.4033 313.219 26.1078 319.62 28.1606C321.965 28.9108 323.818 29.9126 325 32.1426C324.919 33.574 324.731 34.2857 323.666 35.3233C319.154 39.7385 310.193 38.2283 304.293 38.1209C304.419 38.3787 304.562 38.6311 304.678 38.8952C306.048 41.9721 305.842 269.307 305.296 291.527C305.26 293.084 305.081 294.286 304.482 295.745C304.32 297.054 303.55 298.409 302.619 299.346C297.535 304.476 273.999 302.506 266.22 302.437C260.795 302.544 251.69 303.894 247.053 300.804C236.606 293.837 248.548 268.26 246.086 258.759C246.059 258.639 246.014 258.521 245.979 258.402C227.68 257.93 209.257 258.355 190.94 258.349L80.9352 258.379C81.4097 259.018 81.8037 259.707 82.117 260.433C84.5789 266.067 87.3719 290.955 85.0622 296.489C84.2834 298.331 82.86 300.402 80.9263 301.132C73.8988 303.791 35.4579 303.339 28.7169 300.301C25.4404 298.822 24.6974 296.027 24.2677 292.679C23.4262 286.084 24.187 278.814 24.196 272.14L24.1603 229.74L24.187 83.4218C24.187 74.7632 25.521 44.1412 23.2381 38.0349C20.5883 38.103 16.9806 38.5049 14.4381 37.735C12.1016 37.026 10.141 35.7163 9.03992 33.5149C9.00411 32.1989 8.84294 31.5598 9.57703 30.3736C10.6602 28.6324 12.1911 27.9502 14.089 27.4417Z" fill="black"/>
<path d="M168.211 65.0502C180.834 63.6545 195.381 64.7888 208.183 64.7843C211.343 70.2604 211.406 84.2787 212.417 91.0376C216.455 117.976 227.144 146.897 247.895 165.456C252.846 169.883 262.997 175.303 266.345 178.934C266.516 179.111 266.668 179.295 266.829 179.475C266.883 179.593 266.936 179.709 266.99 179.829C268.834 184.295 268.727 200.396 266.856 204.644C266.748 206.867 262.899 211.581 261.708 213.794C258.942 218.919 255.97 228.578 252.371 232.521C252.416 232.692 252.487 232.857 252.514 233.032C253.016 236.121 249.981 245.15 247.984 247.619L167.45 247.611C168.22 246.102 168.614 245.063 168.686 243.333C169.285 229.691 168.802 215.819 168.802 202.154V123.953L168.793 86.19C168.802 79.5949 169.652 71.4555 168.211 65.0502Z" fill="#FEFEFE"/>
<path d="M118.151 65.0491C131.06 64.2497 144.256 64.7939 157.201 64.8074C157.648 65.545 157.953 66.2683 158.141 67.1188C159.412 72.8384 158.329 107.783 158.329 115.997C158.347 158.14 159.421 200.579 158.293 242.691C158.239 244.6 158.123 245.915 157.147 247.593L100.381 247.591L78.9849 247.675C79.4326 246.386 79.2445 245.322 78.9581 244.025C76.8453 234.452 68.7346 210.33 60.4717 204.993C60.5254 204.884 60.5881 204.776 60.6418 204.665C62.486 200.89 62.0383 183.52 60.5791 179.595C72.405 175.22 84.0251 163.601 91.527 153.657C106.692 133.578 113.746 107.892 117.041 83.3027C117.811 77.6072 118.957 70.7597 118.151 65.0491Z" fill="#FEFEFE"/>
<path d="M246.095 38.1869C252.343 37.8154 258.753 38.0965 265.029 38.093C265.19 38.4528 265.253 38.5683 265.396 38.9792C266.73 42.834 266.345 85.5488 266.945 93.8126C268.681 118.395 272.629 142.771 278.744 166.646C279.505 169.566 280.588 171.353 279.164 174.136C278.761 174.219 278.654 174.258 278.189 174.248C277.07 174.226 276.291 174.043 275.503 173.249C271.385 169.107 268.833 161.789 266.479 156.535C249.416 118.579 246.399 79.215 246.095 38.1869Z" fill="#FED300"/>
<path d="M62.136 38.1862C68.2235 37.7968 74.4901 38.0904 80.5955 38.1021C84.0332 44.7401 81.0163 74.2163 80.1032 83.523C78.6082 98.6308 68.5637 156.033 57.4719 165.115C57.839 167.839 54.5803 171.582 53.0763 173.693C51.5813 174.441 50.4713 174.265 48.8419 174.109C48.7256 173.821 48.4838 173.559 48.4749 173.247C48.448 170.816 50.4533 166.2 51.0442 163.671C53.0942 154.834 55.0727 145.87 56.4603 136.906C61.3035 105.693 64.4904 69.7312 62.136 38.1862Z" fill="#FED300"/>
<path d="M275.701 38.1871C281.842 37.8352 288.109 38.1101 294.25 38.1405C294.546 38.6642 294.59 38.6785 294.752 39.3616C295.826 43.8673 294.814 66.2129 294.814 73.1778L294.787 137.279C294.778 148.175 295.19 159.214 294.689 170.087C294.617 171.578 294.367 172.579 293.561 173.85L292.218 174.237L291.135 173.537C281.314 141.115 276.919 106.894 275.898 73.0838C275.549 61.4575 276.229 49.8008 275.701 38.1871Z" fill="#FED300"/>
<path d="M34.0174 38.1862C39.7737 37.837 45.6821 38.1002 51.4474 38.1118C51.895 39.0653 52.1814 40.0061 52.3068 41.0562C53.2109 49.0703 52.7813 57.5579 52.5843 65.6212C52.1904 92.9801 49.3883 120.25 44.2139 147.119C43.3903 151.344 42.6294 159.08 39.9079 162.471C39.9616 162.617 40.0332 162.756 40.078 162.908C40.8121 165.989 38.0638 172.726 36.4255 175.273L35.6915 174.82C32.5224 165.531 34.259 150.285 34.268 140.197L34.3038 73.235C34.3128 61.6956 35.0827 49.6486 34.0174 38.1862Z" fill="#FED300"/>
<path d="M91.7757 38.1871C96.9948 37.8908 102.348 38.111 107.585 38.1128C111.784 46.4545 106.431 85.7333 104.336 95.8359C101.713 108.491 91.8921 141.809 80.9704 148.99C80.9614 149.144 80.9793 149.3 80.9525 149.453C80.29 153.064 73.7728 157.223 70.8633 158.967C71.3198 158.527 71.7674 158.083 72.1972 157.618C76.163 153.333 78.2758 144.181 79.8603 138.568C88.9826 105.922 93.0021 72.0615 91.7757 38.1871Z" fill="#FED300"/>
<path d="M219.248 38.187C224.494 37.8566 229.901 38.11 235.165 38.1171C237.654 43.253 235.998 62.6866 236.472 69.7168C237.725 88.4189 240.313 106.716 244.941 124.902C246.731 132.104 248.862 139.216 251.342 146.211C252.21 148.597 254.86 153.446 254.959 155.704C254.985 156.296 254.708 156.861 254.583 157.441C250.688 152.751 246.212 148.53 242.775 143.465C221.952 112.779 219.382 74.0675 219.248 38.187Z" fill="#FED300"/>
<path d="M118.758 38.1871C148.372 37.6384 178.085 38.1137 207.707 38.1218C208.155 39.0054 208.46 39.7305 208.576 40.7233C209.015 44.332 209.579 51.022 207.305 53.9315C201.79 55.4605 187.681 54.2833 181.424 54.277L118.042 54.2743C120.28 49.7839 119.17 43.1288 118.758 38.1871Z" fill="#FEFEFE"/>
<path d="M286.881 213.469C289.199 213.155 292.342 212.539 294.526 213.442C295.269 222.102 295.761 287.682 293.676 291.625L283.676 291.636C282.082 291.678 280.534 291.568 278.94 291.439C275.529 286.105 281.456 242.801 282.888 234.748C283.936 228.871 287.355 219.002 286.881 213.469Z" fill="#FED300"/>
<path d="M33.7132 213.466C36.0497 213.167 38.0551 212.91 40.3916 213.402C42.0478 215.432 42.5938 218.466 43.1578 220.972C45.6734 232.083 54.5809 283.507 49.6303 291.377C44.4559 292.208 38.3863 291.637 33.1045 291.614C33.1672 291.506 33.2387 291.4 33.3014 291.289C33.8296 290.361 34.0713 289.486 34.1787 288.426C34.9038 281.274 35.1634 218.407 33.7132 213.466Z" fill="#FED300"/>
<path d="M273.631 213.467C274.768 213.318 275.395 213.24 276.46 213.689C276.523 213.94 276.595 214.188 276.639 214.441C276.872 215.654 273.094 231.695 272.638 234.63C269.764 253.232 269.71 270.265 268.215 288.677C268.126 289.818 267.768 290.694 267.168 291.648L255.521 291.634L254.125 291.241C254.017 291.017 253.901 290.799 253.811 290.569C252.979 288.473 254.035 283.989 254.25 281.709C255.996 263.786 258.977 246.037 265.44 229.153C267.499 223.782 271.125 219.064 273.479 213.821L273.631 213.467Z" fill="#FED300"/>
<path d="M50.9912 213.462L53.5515 213.294C60.3463 217.32 65.1358 233.35 67.347 240.85C69.7283 248.924 77.9553 284.443 74.455 290.879C74.3834 290.952 74.3207 291.041 74.2401 291.097C71.9842 292.549 62.8081 291.67 59.7912 291.647C60.1225 291.106 60.4 290.63 60.579 290.014C63.4795 279.604 55.7448 221.414 50.9912 213.462Z" fill="#FED300"/>
<path d="M277.339 185.263C282.612 184.556 288.296 184.929 293.632 184.932C294.044 185.632 294.339 186.171 294.545 186.961C295.574 190.925 295.485 199.198 293.166 202.478C287.804 202.887 282.155 202.547 276.757 202.557C276.9 202.33 277.052 202.108 277.178 201.874C278.789 198.937 278.27 188.611 277.339 185.263Z" fill="#FED300"/>
<path d="M33.7486 185.26C38.923 184.539 44.545 184.931 49.782 184.937C50.8742 186.722 50.9368 188.353 51.0353 190.407C51.2054 193.688 51.8589 199.8 49.5134 202.366C44.5539 203.206 38.3858 202.559 33.292 202.553C33.4084 202.361 33.5337 202.174 33.6501 201.977C35.2615 199.109 34.5364 188.577 33.7486 185.26Z" fill="#FED300"/>
</svg>

<svg xmlns="http://www.w3.org/2000/svg" width="330" height="330" fill="none" viewBox="0 0 330 330"><path fill="#000" d="M14.089 27.442c22.882-.702 46.006-.05 68.905-.048l135.448.01c13.804 0 94.777-1.296 101.178.757 2.345.75 4.198 1.752 5.38 3.982-.081 1.431-.269 2.143-1.334 3.18-4.512 4.416-13.473 2.905-19.373 2.798.126.258.269.51.385.774 1.37 3.077 1.164 230.412.618 252.632-.036 1.557-.215 2.759-.814 4.218-.162 1.309-.932 2.664-1.863 3.601-5.084 5.13-28.62 3.16-36.399 3.091-5.425.107-14.53 1.457-19.167-1.633-10.447-6.967 1.495-32.544-.967-42.045-.027-.12-.072-.238-.107-.357-18.299-.472-36.722-.047-55.039-.053l-110.005.03a10.2 10.2 0 0 1 1.182 2.054c2.462 5.634 5.255 30.522 2.945 36.056-.779 1.842-2.202 3.913-4.136 4.643-7.027 2.659-45.468 2.207-52.21-.831-3.276-1.479-4.019-4.274-4.448-7.622-.842-6.595-.081-13.865-.072-20.539l-.036-42.4.027-146.318c0-8.659 1.334-39.28-.949-45.387-2.65.068-6.257.47-8.8-.3-2.336-.709-4.297-2.019-5.398-4.22-.036-1.316-.197-1.955.537-3.141 1.083-1.742 2.614-2.424 4.512-2.932"/><path fill="#fefefe" d="M168.211 65.05c12.623-1.395 27.17-.261 39.972-.266 3.16 5.476 3.223 19.495 4.234 26.254 4.038 26.938 14.727 55.859 35.478 74.418 4.951 4.427 15.102 9.847 18.45 13.478.171.177.323.361.484.541l.161.354c1.844 4.466 1.737 20.567-.134 24.815-.108 2.223-3.957 6.937-5.148 9.15-2.766 5.125-5.738 14.784-9.337 18.727.045.171.116.336.143.511.502 3.089-2.533 12.118-4.53 14.587l-80.534-.008c.77-1.509 1.164-2.548 1.236-4.278.599-13.642.116-27.514.116-41.179v-78.201l-.009-37.763c.009-6.595.859-14.734-.582-21.14m-50.06 0c12.909-.8 26.105-.256 39.05-.243a7.4 7.4 0 0 1 .94 2.312c1.271 5.72.188 40.664.188 48.878.018 42.143 1.092 84.582-.036 126.694-.054 1.909-.17 3.224-1.146 4.902l-56.766-.002-21.396.084c.448-1.289.26-2.353-.027-3.65-2.113-9.573-10.223-33.695-18.486-39.032.053-.109.116-.217.17-.328 1.844-3.775 1.396-21.145-.063-25.07 11.826-4.375 23.446-15.994 30.948-25.938 15.165-20.079 22.219-45.765 25.514-70.354.77-5.696 1.916-12.543 1.11-18.254"/><path fill="#fed300" d="M246.095 38.187c6.248-.372 12.658-.09 18.934-.094.161.36.224.475.367.886 1.334 3.855.949 46.57 1.549 54.834a410 410 0 0 0 11.799 72.833c.761 2.92 1.844 4.707.42 7.49-.403.083-.51.122-.975.112-1.119-.022-1.898-.205-2.686-.999-4.118-4.142-6.67-11.46-9.024-16.714-17.063-37.956-20.08-77.32-20.384-118.348m-183.959-.001c6.087-.39 12.354-.096 18.46-.084 3.437 6.638.42 36.114-.493 45.421-1.495 15.108-11.54 72.51-22.631 81.592.367 2.724-2.892 6.467-4.396 8.578-1.495.748-2.605.572-4.234.416-.116-.288-.358-.55-.367-.862-.027-2.431 1.978-7.047 2.57-9.576 2.05-8.837 4.028-17.801 5.415-26.765 4.843-31.213 8.03-67.175 5.676-98.72m213.565.001c6.141-.352 12.408-.077 18.549-.046.296.523.34.538.502 1.22 1.074 4.506.062 26.852.062 33.817l-.027 64.101c-.009 10.896.403 21.935-.098 32.808-.072 1.491-.322 2.492-1.128 3.763l-1.343.387-1.083-.7c-9.821-32.422-14.216-66.643-15.237-100.453-.349-11.626.331-23.283-.197-34.897m-241.684-.001c5.757-.349 11.665-.086 17.43-.074.448.953.734 1.894.86 2.944.904 8.014.474 16.502.277 24.565a466.5 466.5 0 0 1-8.37 81.498c-.824 4.225-1.585 11.961-4.306 15.352.054.146.125.285.17.437.734 3.081-2.014 9.818-3.653 12.365l-.733-.453c-3.17-9.289-1.433-24.535-1.424-34.623l.036-66.962c.009-11.54.779-23.586-.287-35.049m57.759.001c5.219-.296 10.572-.076 15.809-.074 4.199 8.342-1.154 47.62-3.249 57.723-2.623 12.655-12.444 45.973-23.366 53.154-.009.154.01.31-.017.463-.663 3.611-7.18 7.77-10.09 9.514.457-.44.904-.884 1.334-1.349 3.966-4.285 6.079-13.437 7.663-19.05a328.8 328.8 0 0 0 11.916-100.38m127.472-.001c5.246-.33 10.653-.077 15.917-.07 2.489 5.136.833 24.57 1.307 31.6 1.253 18.702 3.841 36.999 8.469 55.185a229 229 0 0 0 6.401 21.309c.868 2.386 3.518 7.235 3.617 9.493.026.592-.251 1.157-.376 1.737-3.895-4.69-8.371-8.911-11.808-13.976-20.823-30.686-23.393-69.398-23.527-105.278"/><path fill="#fefefe" d="M118.758 38.187c29.614-.549 59.327-.073 88.949-.065.448.883.753 1.608.869 2.601.439 3.609 1.003 10.299-1.271 13.209-5.515 1.529-19.624.351-25.881.345l-63.382-.003c2.238-4.49 1.128-11.145.716-16.087"/><path fill="#fed300" d="M286.881 213.469c2.318-.314 5.461-.93 7.645-.027.743 8.66 1.235 74.24-.85 78.183l-10 .011c-1.594.042-3.142-.068-4.736-.197-3.411-5.334 2.516-48.638 3.948-56.691 1.048-5.877 4.467-15.746 3.993-21.279m-253.168-.003c2.337-.299 4.342-.556 6.679-.064 1.656 2.03 2.202 5.064 2.766 7.57 2.515 11.111 11.423 62.535 6.472 70.405-5.174.831-11.244.26-16.525.237.062-.108.134-.214.196-.325.529-.928.77-1.803.878-2.863.725-7.152.984-70.019-.466-74.96m239.918.001c1.137-.149 1.764-.227 2.829.222.063.251.135.499.179.752.233 1.213-3.545 17.254-4.001 20.189-2.874 18.602-2.928 35.635-4.423 54.047-.089 1.141-.447 2.017-1.047 2.971l-11.647-.014-1.396-.393c-.108-.224-.224-.442-.314-.672-.832-2.096.224-6.58.439-8.86 1.746-17.923 4.727-35.672 11.19-52.556 2.059-5.371 5.685-10.089 8.039-15.332zm-222.64-.005 2.56-.168c6.795 4.026 11.585 20.056 13.796 27.556 2.381 8.074 10.608 43.593 7.108 50.029-.072.073-.134.162-.215.218-2.256 1.452-11.432.573-14.449.55.332-.541.609-1.017.788-1.633 2.9-10.41-4.834-68.6-9.588-76.552m226.348-28.199c5.273-.707 10.957-.334 16.293-.331.412.7.707 1.239.913 2.029 1.029 3.964.94 12.237-1.379 15.517-5.362.409-11.011.069-16.409.079.143-.227.295-.449.421-.683 1.611-2.937 1.092-13.263.161-16.611m-243.59-.003c5.174-.721 10.796-.329 16.033-.323 1.092 1.785 1.155 3.416 1.253 5.47.17 3.281.824 9.393-1.522 11.959-4.96.84-11.127.193-16.221.187.116-.192.242-.379.358-.576 1.611-2.868.886-13.4.099-16.717"/></svg>
